X:1
T:In te la vita
T:In te la vita
T:Gio.Girolamo Kapsperger
C:Gio.Girolamo Kapsperger
%%score 1 { ( 2 4 ) | 3 }
L:1/8
Q:1/4=120
M:4/4
K:F
V:1 treble nm="Soprano" snm="S"
V:2 treble nm="BC" snm="BC"
V:4 treble 
V:3 bass 
V:1
 z dBA GGAB | c2 cB AABc | d2 dc BBcd | _e2 ee c4 | B8 |[M:3/4] d2 _e2 ^F2 | G2 A2 B2 | c3 c d2 | %8
w: In te la vi- ta fra' le|spir- to ter- re- no qual ve-|lo- ce ba- le- no fug- ge-|rat- ta dal se-|no,|il vol- to'a-|dor- no di|vi- vi co-|
w: Quel che tu mi- ri bel te-|a- tro d'in- tor- no, va- go|cam- po del gior- no, sol di|pe- n'e sog- gior-|no,|cio che lui|gi- ra si|ve- ste di|
[M:4/4] EcBA B2 Bd | c3 _e d2 G2- | G2 GA A4 | G8 |[M:3/4] _e2 e2 e2 | dc BA G2 | c2 A2 f2 | %15
w: lor' per- d'in un gior- no il|suo bel fior ne|_ fa ri- tor-|no.|Na- to'al mo-|rir' _ _ _ _|mi- ra, mi-|
w: fi'al, iu cam- po d'i- ra vi-|ta'e mor- ta- le-|che lie- ve spi-|ra.|Del fal- so|ben _ _ _ _|fug- gi,- fug-|
 d3 _e c2 | B6 |[M:6/4] F2 G2 A2 B2 c2 d2 | _e6 d4 c2 | d4 c4 B4 | A4 G6 A2 | %21
w: ra'i tuoi dan-|ni,|va fu- ga- ce la bel-|ta e l'e-|ta fug- ge|lie- ve'il gio-|
w: ge l'in- gan-|ni,|che da noi, col di' sol,|par- te- a|vol, o- gni|no- stro se-|
[M:4/4] ^F/ D/E/F/ G/A/B/c/ d<_e (3d/e/f/e | d8- | d8- | d2 e/f/g AB>cE | ^F2 G4 F2 | G8 |] %27
w: ir, re- * * * * * * * * stan _ _ _|sol|_|* * * * gl'af- * * *|fa- * *|ni.|
w: ren', re- * * * * * * * * stan _ _ _|sol|_|* * * * gl'af- * * *|fa- * *|ni.|
V:2
 [GBd]3 [FA] [GB]2 [Fd]2 | [Gc]2 [Ec]2 [Ac]2 [GB]2 | [Fd]2 [FA]2 [DB]2 [Ac]2 | [GB]2 [G_e]2 [Ac]4 | %4
 [Fd]8 |[M:3/4] [Fd]2 [G_e]2 [Ad]2 | [GB]2 [Ac]2 [Fd]2 | [EG]2 [DG]4 |[M:4/4] [EGc]4 [GBd]4 | %9
 [Ac]4 [Bd]4 | [Gc]4 d4 | [DG=B]8 |[M:3/4] [_EGc]2 [Dc]2 [CF]2 | [Fd]4 [Gc]2 | [FAc]2 [FA]2 [DB]2 | %15
 [FB]2 [DB]2 [Ac]2 | [DFB]6 |[M:6/4] [DF]6 [DB]6 | [Gc]6 [FA]6 | [Fd]2 [Gc]4 [DB]4 F2 | %20
 [FA]2 [Ac]4 [DB]4 [EG]2 |[M:4/4] [^FA]4 [Gc]4 | [^FA]2 [Gc]2 [Bd]2 [Ac]2 | %23
 [Ad]2 [GB]2 [FB]2 [FA]2 | [FB]4 [EG]4 | [Ad]8 | [DG=B]8 |] %27
V:3
 G,,3 D, _E,2 D,2 | C,2 C2 F,2 _E,2 | D,2 D2 G,2 F,2 | _E,2 C,2 F,4 | B,,8 |[M:3/4] B,,2 C,2 D,2 | %6
 _E,4 D,2 | C,2 =B,,4 |[M:4/4] C,4 G,,4 | A,,4 B,,4 | C,4 [D,A,]4 | G,,8 |[M:3/4] C,2 G,2 A,2 | %13
 B,4 _E,C,- | C, F,2 D,2 B,,- | B,,2 G,,2 F,,2 | B,,6 |[M:6/4] B,4 A,2 G,4 F,2 | %18
 C,2 D,2 _E,2 F,2 G,2 A,2 | B,2 _E,4 G,4 D,2- | D,2 F,4 B,,4 C,2 |[M:4/4] D,4 C,4 | %22
 D,2 C,2 B,,2 A,,G,, | ^F,,2 G,,2 D,2 F,2 | B,,4 C,4 | D,3 C, D,4 | G,,8 |] %27
V:4
 x8 | x8 | x8 | x8 | x8 |[M:3/4] x6 | x6 | x6 |[M:4/4] x8 | E4 F2 G2 | E4 G2 ^F2 | x8 |[M:3/4] x6 | %13
 x6 | x6 | x6 | x6 |[M:6/4] x12 | x12 | x12 | x12 |[M:4/4] x8 | x8 | x8 | x8 | ^F2 G4 F2 | x8 |] %27

